src/icons/word.svg

<svg viewBox="0 0 24 24" xmlns="http://www.w3.org/2000/svg">
  <path
    d="M6 2H14L20 8V20C20 20.5304 19.7893 21.0391 19.4142 21.4142C19.0391 21.7893 18.5304 22 18 22H6C5.46957 22 4.96086 21.7893 4.58579 21.4142C4.21071 21.0391 4 20.5304 4 20V4C4 3.46957 4.21071 2.96086 4.58579 2.58579C4.96086 2.21071 5.46957 2 6 2ZM13 3.5V9H18.5L13 3.5ZM7 13L8.5 20H10.5L12 17L13.5 20H15.5L17 13H18V11H14V13H15L14.1 17.2L13 15H11L9.9 17.2L9 13H10V11H6V13H7Z"
    fill="#01579B"
  />
</svg>

<svg viewBox="0 0 24 24" xmlns="http://www.w3.org/2000/svg">
  <path
    d="M6 2h8l6 6v12a2 2 0 0 1-2 2H6a2 2 0 0 1-2-2V4a2 2 0 0 1 2-2m7 1.5V9h5.5L13 3.5M7 13l1.5 7h2l1.5-3 1.5 3h2l1.5-7h1v-2h-4v2h1l-.9 4.2L13 15h-2l-1.1 2.2L9 13h1v-2H6v2h1z"
    fill="#01579b"
  />
</svg>
